SVG_Azure_Grouped/Security/Adaptive Application Control.svg

<?xml version="1.0" encoding="UTF-8" standalone="no"?>
<!-- Generated by Microsoft Visio, SVG Export Adaptive Application Control.svg Page-1 -->

<svg
   xmlns:dc="http://purl.org/dc/elements/1.1/"
   xmlns:cc="http://creativecommons.org/ns#"
   xmlns:rdf="http://www.w3.org/1999/02/22-rdf-syntax-ns#"
   xmlns:svg="http://www.w3.org/2000/svg"
   xmlns="http://www.w3.org/2000/svg"
   xmlns:sodipodi="http://sodipodi.sourceforge.net/DTD/sodipodi-0.dtd"
   xmlns:inkscape="http://www.inkscape.org/namespaces/inkscape"
   width="0.79020369in"
   height="0.6303401in"
   viewBox="0 0 56.894715 45.384729"
   xml:space="preserve"
   class="st7"
   version="1.1"
   id="svg44"
   sodipodi:docname="Adaptive Application Control.svg"
   style="font-size:12px;overflow:visible;color-interpolation-filters:sRGB;fill:none;fill-rule:evenodd;stroke-linecap:square;stroke-miterlimit:3"
   inkscape:version="0.92.5 (2060ec1f9f, 2020-04-08)"><metadata
   id="metadata50"><rdf:RDF><cc:Work
       rdf:about=""><dc:format>image/svg+xml</dc:format><dc:type
         rdf:resource="http://purl.org/dc/dcmitype/StillImage" /></cc:Work></rdf:RDF></metadata><defs
   id="defs48" /><sodipodi:namedview
   pagecolor="#ffffff"
   bordercolor="#666666"
   borderopacity="1"
   objecttolerance="10"
   gridtolerance="10"
   guidetolerance="10"
   inkscape:pageopacity="0"
   inkscape:pageshadow="2"
   inkscape:window-width="640"
   inkscape:window-height="480"
   id="namedview46"
   showgrid="false"
   inkscape:zoom="1.3939607"
   inkscape:cx="37.931086"
   inkscape:cy="30.255167"
   inkscape:window-x="0"
   inkscape:window-y="0"
   inkscape:window-maximized="0"
   inkscape:current-layer="svg44" />
	<style
   type="text/css"
   id="style2">
	<![CDATA[
		.st1 {fill:#c5c7c7;stroke:none;stroke-linecap:butt;stroke-width:40.8}
		.st2 {fill:#f7fafa;stroke:none;stroke-linecap:butt;stroke-width:40.8}
		.st3 {fill:#0072c6;stroke:none;stroke-linecap:butt;stroke-width:40.8}
		.st4 {fill:#4e5d69;stroke:none;stroke-linecap:butt;stroke-width:40.8}
		.st5 {fill:#ffffff;stroke:none;stroke-linecap:butt;stroke-width:40.8}
		.st6 {fill:#98ce07;stroke:none;stroke-linecap:butt;stroke-width:40.8}
		.st7 {fill:none;fill-rule:evenodd;font-size:12px;overflow:visible;stroke-linecap:square;stroke-miterlimit:3}
	]]>
	</style>

	<g
   id="g42"
   transform="translate(-40.799344,-40.795271)">
		<title
   id="title4">Page-1</title>
		<g
   id="group17015-1"
   transform="translate(40.8363,-40.8)">
			<title
   id="title6">Adaptive Application Control.17015</title>
			<g
   id="group17016-2">
				<title
   id="title8">Sheet.17016</title>
				<g
   id="shape17017-3"
   transform="translate(0,-6.96152)">
					<title
   id="title10">Sheet.17017</title>
					<path
   d="m 5.98,88.58 h 34.88 a 5.93974,5.77807 0 0 1 5.66,6.03 v 26.8 c 0,0.8 -1.9,2.47 -2.44,2.99 -0.53,0.52 -1.71,2.58 -2.5,2.58 H 3.04 A 2.96987,2.88903 0 0 1 0,124.09 V 94.61 a 5.93974,5.77807 0 0 1 5.98,-6.03 z"
   class="st1"
   id="path12"
   inkscape:connector-curvature="0"
   style="fill:#c5c7c7;stroke:none;stroke-width:40.79999924;stroke-linecap:butt" />
				</g>
				<g
   id="shape17018-5"
   transform="translate(3.57815,-10.3727)">
					<title
   id="title15">Sheet.17018</title>
					<path
   d="m 5.76,95.48 h 28.13 a 5.72505,5.56922 0 0 1 5.47,5.84 v 22.8 a 2.86252,2.78461 0 0 1 -2.83,2.86 H 2.97 A 2.86252,2.78461 0 0 1 0,124.09 v -22.77 a 5.72505,5.56922 0 0 1 5.76,-5.84 z"
   class="st2"
   id="path17"
   inkscape:connector-curvature="0"
   style="fill:#f7fafa;stroke:none;stroke-width:40.79999924;stroke-linecap:butt" />
				</g>
				<g
   id="shape17019-7"
   transform="translate(0,-34.912)">
					<title
   id="title20">Sheet.17019</title>
					<path
   d="m 5.98,116.53 h 34.88 a 5.51036,5.36037 0 0 1 5.66,5.96 v 4.49 H 0 v -4.49 a 5.51036,5.36037 0 0 1 5.98,-5.96 z"
   class="st3"
   id="path22"
   inkscape:connector-curvature="0"
   style="fill:#0072c6;stroke:none;stroke-width:40.79999924;stroke-linecap:butt" />
				</g>
				<g
   id="shape17020-9"
   transform="translate(7.33522,-17.5082)">
					<title
   id="title25">Sheet.17020</title>
					<path
   d="m 10.56,121.44 v 1.05 L 1.36,126.98 0,124.96 6.44,121.83 0,118.66 l 1.36,-2.02 7.8,4.04 0.86,0.45 0.54,0.28 z"
   class="st4"
   id="path27"
   inkscape:connector-curvature="0"
   style="fill:#4e5d69;stroke:none;stroke-width:40.79999924;stroke-linecap:butt" />
				</g>
				<g
   id="shape17021-11"
   transform="translate(22.6696)">
					<title
   id="title30">Sheet.17021</title>
					<path
   d="m 33.36,105.99 -13.84,18.79 a 6.0113,5.84768 0 0 1 -4.37,2.2 7.87194,7.65768 0 0 1 -4.18,-2.02 l -8.59,-6.62 a 6.47646,6.30018 0 0 1 -0.97,-8.87 c 3.58,-4.42 6.94,-1.74 9.7,0 l 3,2.16 8.56,-12.12 a 5.97552,5.81287 0 0 1 8.73,-2.05 6.83427,6.64826 0 0 1 1.96,8.53 z"
   class="st5"
   id="path32"
   inkscape:connector-curvature="0"
   style="fill:#ffffff;stroke:none;stroke-width:40.79999924;stroke-linecap:butt" />
				</g>
				<g
   id="shape17022-13"
   transform="translate(25.4583,-3.6548)">
					<title
   id="title35">Sheet.17022</title>
					<path
   d="m 27.68,108.22 -12.74,17.75 a 3.57815,3.48076 0 0 1 -2.93,1.01 3.36346,3.27192 0 0 1 -2.44,-0.8 l -8.44,-6.51 a 3.2919,3.2023 0 0 1 -0.36,-4.49 3.57815,3.48076 0 0 1 4.76,-0.28 l 5.94,4.56 11.09,-15.42 a 3.57815,3.48076 0 0 1 4.76,-0.28 3.25612,3.16749 0 0 1 0.39,4.46 z"
   class="st6"
   id="path37"
   inkscape:connector-curvature="0"
   style="fill:#98ce07;stroke:none;stroke-width:40.79999924;stroke-linecap:butt" />
				</g>
			</g>
		</g>
	</g>
</svg>

<?xml version="1.0" encoding="UTF-8" standalone="no"?>
<!DOCTYPE svg PUBLIC "-//W3C//DTD SVG 1.1//EN" "http://www.w3.org/Graphics/SVG/1.1/DTD/svg11.dtd">
<!-- Generated by Microsoft Visio, SVG Export Adaptive Application Control.svg Page-1 -->
<svg xmlns="http://www.w3.org/2000/svg" xmlns:xlink="http://www.w3.org/1999/xlink" xmlns:ev="http://www.w3.org/2001/xml-events"
		width="1.92354in" height="1.76356in" viewBox="0 0 138.495 126.977" xml:space="preserve" color-interpolation-filters="sRGB"
		class="st7">
	<style type="text/css">
	<![CDATA[
		.st1 {fill:#c5c7c7;stroke:none;stroke-linecap:butt;stroke-width:40.8}
		.st2 {fill:#f7fafa;stroke:none;stroke-linecap:butt;stroke-width:40.8}
		.st3 {fill:#0072c6;stroke:none;stroke-linecap:butt;stroke-width:40.8}
		.st4 {fill:#4e5d69;stroke:none;stroke-linecap:butt;stroke-width:40.8}
		.st5 {fill:#ffffff;stroke:none;stroke-linecap:butt;stroke-width:40.8}
		.st6 {fill:#98ce07;stroke:none;stroke-linecap:butt;stroke-width:40.8}
		.st7 {fill:none;fill-rule:evenodd;font-size:12px;overflow:visible;stroke-linecap:square;stroke-miterlimit:3}
	]]>
	</style>

	<g>
		<title>Page-1</title>
		<g id="group16622-1" transform="translate(40.8363,-40.8)">
			<title>Adaptive Application Control.16622</title>
			<g id="group16623-2">
				<title>Sheet.16623</title>
				<g id="shape16624-3" transform="translate(0,-6.96152)">
					<title>Sheet.16624</title>
					<path d="M5.98 88.58 L40.86 88.58 A5.93974 5.77807 0 0 1 46.52 94.61 L46.52 121.41 C46.52 122.21 44.62 123.88
								 44.08 124.4 C43.55 124.92 42.37 126.98 41.58 126.98 L3.04 126.98 A2.96987 2.88903 0 0 1 0 124.09
								 L0 94.61 A5.93974 5.77807 0 0 1 5.98 88.58 Z" class="st1"/>
				</g>
				<g id="shape16625-5" transform="translate(3.57815,-10.3727)">
					<title>Sheet.16625</title>
					<path d="M5.76 95.48 L33.89 95.48 A5.72505 5.56922 0 0 1 39.36 101.32 L39.36 124.12 A2.86252 2.78461 0 0 1 36.53
								 126.98 L2.97 126.98 A2.86252 2.78461 0 0 1 0 124.09 L0 101.32 A5.72505 5.56922 0 0 1 5.76 95.48
								 Z" class="st2"/>
				</g>
				<g id="shape16626-7" transform="translate(0,-34.912)">
					<title>Sheet.16626</title>
					<path d="M5.98 116.53 L40.86 116.53 A5.51036 5.36037 0 0 1 46.52 122.49 L46.52 126.98 L0 126.98 L0 122.49 A5.51036
								 5.36037 0 0 1 5.98 116.53 Z" class="st3"/>
				</g>
				<g id="shape16627-9" transform="translate(7.33522,-17.5082)">
					<title>Sheet.16627</title>
					<path d="M10.56 121.44 L10.56 122.49 L1.36 126.98 L0 124.96 L6.44 121.83 L0 118.66 L1.36 116.64 L9.16 120.68
								 L10.02 121.13 L10.56 121.41 L10.56 121.44 Z" class="st4"/>
				</g>
				<g id="shape16628-11" transform="translate(22.6696,-2.41585E-13)">
					<title>Sheet.16628</title>
					<path d="M33.36 105.99 L19.52 124.78 A6.0113 5.84768 0 0 1 15.15 126.98 A7.87194 7.65768 0 0 1 10.97 124.96 L2.38
								 118.34 A6.47646 6.30018 0 0 1 1.41 109.47 C4.99 105.05 8.35 107.73 11.11 109.47 L14.11 111.63 L22.67
								 99.51 A5.97552 5.81287 0 0 1 31.4 97.46 A6.83427 6.64826 0 0 1 33.36 105.99 Z" class="st5"/>
				</g>
				<g id="shape16629-13" transform="translate(25.4583,-3.6548)">
					<title>Sheet.16629</title>
					<path d="M27.68 108.22 L14.94 125.97 A3.57815 3.48076 0 0 1 12.01 126.98 A3.36346 3.27192 0 0 1 9.57 126.18 L1.13
								 119.67 A3.2919 3.2023 0 0 1 0.77 115.18 A3.57815 3.48076 0 0 1 5.53 114.9 L11.47 119.46 L22.56 104.04
								 A3.57815 3.48076 0 0 1 27.32 103.76 A3.25612 3.16749 0 0 1 27.71 108.22 L27.68 108.22 Z"
							class="st6"/>
				</g>
			</g>
		</g>
	</g>
</svg>
